!!!OTL: Folk song Number 14
!!!CNT: Chinese
**kern
*k[b-]
*M2/4
=1
8cc
8ff
8ff
8ff
=2
(8gg
8dd)
4cc
=3
(8g
8cc)
8cc
(16cc
16b-)
=4
8g
(16f
16d)
4c
=5
2r
=6
2r
=7
(8cc
8gg)
(16ff
16dd
16dd
16cc)
=8
(16cc
16a)
(16cc
16a)
8ff
(16f
16g)
=9
4f
16f
16f
16b-
16d
=10
(16cc
16b-)
8g
8f
8f
=11
8b-
(16b-
16g)
4f
=12
2r
=13
2r
=14
8cc
8ff
8ff
8ff
=15
(8gg
8dd)
4cc
=16
(8g
8cc)
8cc
(16cc
16b-)
=17
8g
(16f
16d)
4c
=18
2r
=19
2r
=20
(8cc
8gg)
(16ff
16dd
16dd
16cc)
=21
(16cc
16a)
(16cc
16a)
8ff
(16f
16g)
=22
4f
16f
16f
16b-
16d
=23
(16cc
16b-)
8g
8f
8f
=24
8b-
(16b-
16g)
4f
==
*-
!!!PPR: Yin yueh ch'u pan she
!!!OPR: Chung-kuo min ko Chung-kuo yin yueh yen chiu so pien [Chinese folk songs]
!!!OCL: Chung-kuo yin yueh yen chiu so
!!!PPP: Beijing, China
!!!PDT: 1959///
!!!SML: Edward Johnson Library, University of Toronto M1804.C4694C5
!!!PPG: p.9
!!!ENC: David Huron
!!!EMD: Paul von Hippel updated this file in the following ways (1998/9/29/):
!!!EMD:  (1) changed the representation of slurs from curly braces to parentheses 
!!!EMD:  (2) changed freeform comments into reference records and tandem interpretations
!!!EMD:  (3) corrected the author, title, author, and call number of the printed source 
!!!EEV: Version 2.0
